X: 132131
T: McKenna Country
C: Joe Liddy
Z: BB
S: "The Leitrim Fiddler" (Dublin 1981)
L: 1/8
M: 4/4
R: reel
Q: 1/4 = 180
K: D
EG | A2 GE ADED | A,DDE FGAB | =c2 dB cAGE | =C2 A,B, CDEG |
ADED ADBc | AGED CDEG | ABcd ecdB | cAGE D2 :|
EG | Ad d2 Adfd | adfd adfd | A=c c2 AcBc | g=cec gcBc |
Ad d2 Adfd | adfd (3edc AB | cBcd ecdB | cAGE D2 EG |
Ad d2 Adfd | adfd (3edc AB | =c2 cB cdef | g=cec Gcec |
Ad d2 defg | abaf g2 ag | fdcA dcde | cAGE D4 ||
